app/images/logo.svg

<svg width="80" height="22" viewBox="0 0 80 22" fill="none" xmlns="http://www.w3.org/2000/svg">
<g clip-path="url(#clip0_2508_291)">
<path d="M48.1703 14.4519C48.2749 17.2013 50.763 19.9658 53.6172 19.9658C54.7978 19.9658 55.7616 19.6701 56.4864 19.1011C57.2037 18.5244 57.5697 17.7705 57.5697 16.8393C57.5697 16.0631 57.3306 15.4202 56.8599 14.925C56.3818 14.4225 55.2908 13.8164 53.5872 13.1217C51.0394 12.0796 49.2985 11.0594 48.3719 10.0766C47.4453 9.09347 46.9822 7.85186 46.9822 6.36614C46.9822 4.51836 47.6546 3.00318 48.9995 1.82799C50.3444 0.6527 52.0778 0.0984685 54.1998 0.0615129C55.7614 0.0319484 59.303 0.423678 60.4685 1.1554L60.4536 6.45484H59.2805C59.2357 3.92707 57.0763 1.77615 54.5358 1.77615C53.4898 1.77615 52.6679 2.03494 52.0553 2.54483C51.4502 3.05482 51.1438 3.74958 51.1438 4.62174C51.1438 5.3978 51.383 6.02605 51.8536 6.50647C52.3243 6.99429 53.4376 7.58558 55.1786 8.28773C55.5302 8.43911 55.8865 8.57961 56.247 8.70903C58.0701 9.43336 59.3104 10.0764 59.9531 10.6454C60.6179 11.259 61.1186 11.9243 61.4399 12.6484C61.7537 13.3653 61.918 14.1932 61.918 15.1319C61.918 17.1792 61.2007 18.8126 59.7736 20.0395C58.3465 21.2666 56.4038 21.8799 53.9756 21.8799C51.4353 21.8799 48.9545 21.407 46.6458 20.3353V14.4667L48.1703 14.4519ZM66.252 14.5702C66.3566 17.3122 68.8447 20.0767 71.6914 20.0767C72.8794 20.0767 73.8433 19.7883 74.5606 19.2117C75.2852 18.6353 75.6514 17.8814 75.6514 16.9575C75.6514 16.174 75.4122 15.5384 74.9341 15.0357C74.4634 14.5332 73.3726 13.9272 71.6691 13.2325C69.1211 12.1904 67.3802 11.1702 66.4536 10.1874C65.5271 9.20423 65.0565 7.96992 65.0565 6.4843C65.0565 4.63652 65.7364 3.12134 67.0738 1.94615C68.4188 0.763567 70.1596 0.209233 72.2816 0.172277C73.8433 0.142713 77.3849 0.541936 78.5429 1.26616L78.5355 6.5656H77.3625C77.3175 4.03784 75.1508 1.89441 72.6103 1.89441C71.5717 1.89441 70.7424 2.1531 70.1372 2.66309C69.532 3.17307 69.2257 3.86784 69.2257 4.7326C69.2257 5.50867 69.4648 6.14431 69.9355 6.62473C70.4063 7.10515 71.5195 7.70384 73.2605 8.3985C73.4996 8.50208 73.8583 8.6499 74.3215 8.82729C76.1521 9.54423 77.3923 10.1946 78.0349 10.7563C78.6999 11.3772 79.2004 12.0423 79.5144 12.7593C79.8357 13.4762 80.0001 14.3115 80.0001 15.2501C80.0001 17.2975 79.2829 18.931 77.8557 20.1579C76.4211 21.3775 74.4858 21.9983 72.0502 21.9983C69.5099 21.9983 67.0291 21.5178 64.7278 20.4462L64.7204 14.5851L66.252 14.5702ZM12.9261 10.1503C16.266 9.69944 17.7305 7.8147 17.7305 5.26476C17.7305 3.72002 17.185 2.53005 16.0942 1.71702C15.0108 0.896608 13.4342 0.482704 11.3795 0.490095L0.179322 0.497487V1.68017C1.53171 1.68017 2.61511 1.83538 2.61511 2.4045L2.60017 19.7293C2.03979 20.2689 0.747176 20.3429 0 20.3429V21.5549H11.6335C15.0108 21.5549 18.4627 20.3207 18.8438 16.1964C19.1799 12.5155 16.9309 10.2908 12.9261 10.1503ZM7.5912 1.86484C7.60614 1.86484 7.63614 1.85745 7.67339 1.85006C8.15158 1.8205 8.51023 1.80572 8.73438 1.80572C10.2511 1.80572 11.357 2.1531 12.0594 2.84047C12.7618 3.52046 13.1204 4.62902 13.1204 6.14431C13.1204 7.52645 12.7842 8.52425 12.1192 9.12293C11.4542 9.729 10.3633 10.032 8.85403 10.032H7.5912V1.86484ZM7.5912 19.8104V11.3107H9.5488C11.7231 11.3107 13.8451 12.5007 13.8451 15.6715C13.8452 19.3226 10.7891 20.4019 7.5912 19.8104ZM40.5939 2.93646C38.6214 0.97791 35.8868 0.00228119 32.3825 0.00228119C28.9231 0.00228119 26.2108 0.992692 24.2457 2.96612C22.2806 4.93955 21.2944 7.66688 21.2944 11.1407C21.2944 14.5037 22.2583 17.135 24.186 19.0344C26.1137 20.9338 28.796 21.8799 32.2405 21.8799C35.7822 21.8799 38.5541 20.9192 40.5566 19.0048C42.5589 17.0907 43.5601 14.4444 43.5601 11.0815C43.5602 7.60775 42.5665 4.88782 40.5939 2.93646ZM36.6414 17.5562C35.573 19.234 34.1384 20.0767 32.3526 20.0767C30.6118 20.0767 29.2219 19.234 28.1835 17.5637C27.1448 15.8934 26.6218 13.6167 26.6218 10.7564C26.6218 7.94045 27.1598 5.69355 28.2357 4.03055C29.3041 2.36754 30.7388 1.53974 32.5246 1.53974C34.2356 1.53974 35.6252 2.37494 36.6713 4.03794C37.7174 5.70823 38.2403 7.93306 38.2403 10.7046C38.2405 13.5946 37.7025 15.8784 36.6414 17.5562Z" fill="#161515"/>
</g>
<defs>
<clipPath id="clip0_2508_291">
<rect width="80" height="22" fill="white"/>
</clipPath>
</defs>
</svg>

<svg width="80" height="22" fill="none" xmlns="http://www.w3.org/2000/svg"><g clip-path="url(#clip0_2508_291)"><path d="M48.17 14.452c.105 2.75 2.593 5.514 5.447 5.514 1.18 0 2.145-.296 2.87-.865.717-.577 1.083-1.33 1.083-2.262 0-.776-.24-1.419-.71-1.914-.478-.503-1.57-1.109-3.273-1.803-2.548-1.042-4.289-2.063-5.215-3.045-.927-.984-1.39-2.225-1.39-3.71 0-1.849.673-3.364 2.017-4.539C50.344.653 52.078.098 54.2.062c1.562-.03 5.104.362 6.27 1.093l-.015 5.3H59.28c-.045-2.528-2.205-4.679-4.745-4.679-1.046 0-1.868.259-2.48.769-.606.51-.912 1.205-.912 2.077 0 .776.239 1.404.71 1.884.47.488 1.584 1.08 3.325 1.782.351.151.707.292 1.068.421 1.823.724 3.063 1.367 3.706 1.936.665.614 1.166 1.28 1.487 2.003.314.717.478 1.545.478 2.484 0 2.047-.717 3.68-2.144 4.908-1.428 1.227-3.37 1.84-5.798 1.84-2.54 0-5.021-.473-7.33-1.545v-5.868l1.524-.015zm18.082.118c.105 2.742 2.593 5.507 5.44 5.507 1.187 0 2.151-.289 2.869-.865.724-.577 1.09-1.33 1.09-2.255 0-.783-.239-1.419-.717-1.921-.47-.503-1.561-1.109-3.265-1.803-2.548-1.043-4.289-2.063-5.215-3.046-.927-.983-1.397-2.217-1.397-3.703 0-1.847.68-3.363 2.017-4.538C68.419.764 70.16.21 72.282.172c1.561-.03 5.103.37 6.26 1.094l-.007 5.3h-1.172c-.046-2.528-2.212-4.672-4.753-4.672-1.038 0-1.868.26-2.473.77-.605.51-.911 1.204-.911 2.069 0 .776.239 1.411.71 1.892.47.48 1.583 1.079 3.324 1.774.24.103.598.25 1.061.428 1.831.717 3.071 1.368 3.714 1.93.665.62 1.165 1.285 1.48 2.002.32.717.485 1.553.485 2.491 0 2.047-.717 3.681-2.144 4.908-1.435 1.22-3.37 1.84-5.806 1.84-2.54 0-5.02-.48-7.322-1.552l-.008-5.86 1.532-.016zm-53.326-4.42c3.34-.45 4.804-2.335 4.804-4.885 0-1.545-.545-2.735-1.636-3.548C15.011.897 13.434.483 11.38.49L.18.497V1.68c1.353 0 2.436.155 2.436.725L2.6 19.729c-.56.54-1.853.614-2.6.614v1.212h11.633c3.378 0 6.83-1.234 7.21-5.359.337-3.68-1.912-5.905-5.917-6.046zM7.591 1.865c.015 0 .045-.008.082-.015.479-.03.837-.044 1.061-.044 1.517 0 2.623.347 3.325 1.034.703.68 1.061 1.789 1.061 3.304 0 1.382-.336 2.38-1 2.979-.666.606-1.757.909-3.266.909H7.591V1.865zm0 17.945v-8.5H9.55c2.174 0 4.296 1.19 4.296 4.361 0 3.652-3.056 4.73-6.254 4.14zM40.594 2.936C38.62.978 35.887.002 32.382.002c-3.459 0-6.171.99-8.136 2.964-1.965 1.974-2.952 4.7-2.952 8.175 0 3.363.964 5.994 2.892 7.893 1.928 1.9 4.61 2.846 8.054 2.846 3.542 0 6.314-.96 8.317-2.875 2.002-1.914 3.003-4.56 3.003-7.923 0-3.474-.994-6.194-2.966-8.146zm-3.953 14.62c-1.068 1.678-2.503 2.52-4.288 2.52-1.741 0-3.131-.842-4.17-2.512-1.038-1.67-1.561-3.947-1.561-6.808 0-2.816.538-5.062 1.614-6.725 1.068-1.663 2.503-2.491 4.289-2.491 1.71 0 3.1.835 4.146 2.498 1.046 1.67 1.57 3.895 1.57 6.667 0 2.89-.538 5.173-1.6 6.851z" fill="#161515"/></g><defs><clipPath id="clip0_2508_291"><path fill="#fff" d="M0 0h80v22H0z"/></clipPath></defs></svg>
